X: 36156
T: Scotch Nancy
R: jig
M: 6/8
K: Dmajor
|:d2c d2e|f3 e2 d|c2 B c2 d|ecA A3|
d2 c d2 e|f3 e2 d|c2 A G2 E||DED D3:|
|:FED EFG|A2 B c2d|c2B c2d|ecA A3|
FED EFG|A2 B c2d||c2AG2E|DED D3:|

